X: 1
T:J.F. MACKENZIE, ESQ., GARRYNAHINE
M:C
L:1/8
Q:80
C: W.J. Ross, Soval
S:Strathspey
K:HP
a[|
{gAGAG}A2{gcd}c3/2B/2{g}c/2e3/2{A}e3/2f/2|
{ag}a3/2f/2{gef}e3/2c/2{gfg}((3f3/2e/2{g}fga)|
{AGAG}A2{gcd}c3/2B/2{g}c/2e3/2{gfg}f3/2e/2|  !
{g}((3fga){ef}e3/2c/2{g}A2{GdGe}A3/2a/2|
{AGAG}A2{gcd}c3/2B/2{g}c/2e3/2{A}e3/2f/2|
{ag}a3/2f/2{gef}e3/2c/2{gfg}((3f3/2e/2{g}fga)|  !
c/2{GdG}c3/2{gef}e3/2c/2{g}B3/2{e}c/2{gfg}f3/2e/2|
{g}((3fga){ef}e3/2c/2{g}A2{GdGe}A|]
{e}B|  !
{g}A/2a3/2{g}a3/2e/2{g}f/2a3/2{fg}f3/2e/2|
{g}c/2e3/2{gfg}f3/2e/2{g}f/2a3/2{fg}f3/2e/2|
{g}A/2a3/2{g}a3/2e/2{g}f/2a3/2{fg}f3/2e/2|  !
{g}((3fga){ef}e3/2c/2{g}A2{GdGe}A3/2{e}B/2|
{g}A/2a3/2{g}a3/2e/2{g}f/2a3/2{fg}f3/2e/2|
{g}c/2e3/2{gfg}f3/2e/2{g}f/2a3/2{fg}f3/2e/2|  !
c/2{GdG}c3/2{gef}e3/2c/2{g}B3/2{e}c/2{gfg}f3/2e/2|
{g}((3fga){ef}e3/2c/2{g}A2{GdGe}A|]
